public/images/icons/facebook.svg

<svg width="26" height="27" viewBox="0 0 26 27" fill="none" xmlns="http://www.w3.org/2000/svg">
    <rect x="0.25" y="0.25" width="25.5" height="26.5" rx="12.75" fill="white" />
    <path
        d="M18 6.42146C18 6.31098 17.9521 6.20504 17.8669 6.12692C17.7816 6.04881 17.666 6.00493 17.5455 6.00493H15.2727C14.1283 5.95269 13.0078 6.31765 12.1561 7.02008C11.3044 7.7225 10.7907 8.70529 10.7273 9.75369V12.003H8.45455C8.33399 12.003 8.21838 12.0468 8.13313 12.125C8.04789 12.2031 8 12.309 8 12.4195V14.5854C8 14.6959 8.04789 14.8019 8.13313 14.88C8.21838 14.9581 8.33399 15.002 8.45455 15.002H10.7273V20.5835C10.7273 20.6939 10.7752 20.7999 10.8604 20.878C10.9456 20.9561 11.0613 21 11.1818 21H13.9091C14.0296 21 14.1453 20.9561 14.2305 20.878C14.3157 20.7999 14.3636 20.6939 14.3636 20.5835V15.002H16.7455C16.8465 15.0033 16.9452 14.9737 17.0259 14.9179C17.1066 14.8621 17.1646 14.7832 17.1909 14.6937L17.8455 12.5278C17.8635 12.4662 17.866 12.4017 17.8526 12.3392C17.8392 12.2766 17.8103 12.2177 17.7681 12.167C17.726 12.1163 17.6717 12.0752 17.6094 12.0467C17.5472 12.0183 17.4786 12.0033 17.4091 12.003H14.3636V9.75369C14.3862 9.54749 14.4919 9.35642 14.66 9.21778C14.8281 9.07914 15.0466 9.0029 15.2727 9.00394H17.5455C17.666 9.00394 17.7816 8.96006 17.8669 8.88194C17.9521 8.80383 18 8.69788 18 8.58741V6.42146Z"
        fill="#202020" />
    <rect x="0.25" y="0.25" width="25.5" height="26.5" rx="12.75" stroke="#737373" stroke-width="0.5" />
</svg>

<svg width="26" height="27" fill="none" xmlns="http://www.w3.org/2000/svg">
    <rect x=".25" y=".25" width="25.5" height="26.5" rx="12.75" fill="#fff" />
    <path
        d="M18 6.421a.4.4 0 0 0-.133-.294.477.477 0 0 0-.322-.122h-2.272c-1.145-.052-2.265.313-3.117 1.015-.852.703-1.365 1.685-1.429 2.734v2.249H8.455a.476.476 0 0 0-.322.122.4.4 0 0 0-.133.294v2.166a.4.4 0 0 0 .133.295c.085.078.201.122.322.122h2.272v5.582a.4.4 0 0 0 .133.294c.086.078.201.122.322.122h2.727c.12 0 .236-.044.321-.122a.4.4 0 0 0 .134-.294v-5.582h2.381c.101.001.2-.028.28-.084a.417.417 0 0 0 .166-.224l.655-2.166a.384.384 0 0 0-.078-.361.448.448 0 0 0-.159-.12.488.488 0 0 0-.2-.044h-3.045v-2.25a.811.811 0 0 1 .296-.535.958.958 0 0 1 .613-.214h2.273c.12 0 .236-.044.32-.122A.4.4 0 0 0 18 8.587V6.421Z"
        fill="#202020" />
    <rect x=".25" y=".25" width="25.5" height="26.5" rx="12.75" stroke="#737373" stroke-width=".5" />
</svg>
